!!!OTL: Swing Low, Sweet Chariot
!!!COM: unknown
!!!ODT: unknown
!!!YOR: The Folksong Fake Book
!!!YOY: 2000
!!!AST: Spiritual
!!!YEC: Brian Luke, 2001
**kern	**harm
*k[f#c#]	*k[f#c#]
*M4/4	*M4/4
*D:	*D:
*>A	*>A
=1	=1
4f#	I
2d	.
.	vi
4f#	.
=2	=2
4.d	ii7
8d	.
8B	V7
4.A	.
=3	=3
8d	vi
8d	.
8d	.
8d	.
8f#	iii
8a	.
4a	.
=4	=4
2.a	ii7
.	V7
4r	.
*>A'	*>A'
=5	=5
8b	I
8a	.
2f#	.
.	V7/IV
4a	.
=6	=6
4.d	IV
8d	.
8B	ii7
4.A	.
.	V7
=7	=7
8d	I
8d	.
8d	IV
8d	.
8f#	ii7
8f#	.
4e	V7
=8	=8
2d	I;
4r	.
*>A''	*>A''
4f#	.
=9	=9
8f#	I
4d	.
8B	.
4d	.
8d	.
8d	.
=10	=10
8d	IV
8d	.
4d	.
8B	V7
4.A	.
=11	=11
8d	vi
8d	.
8d	.
8d	.
8f#	iii
8a	.
4a	.
=12	=12
2a	ii7
4r	V7
*>A'''	*>A'''
4a	.
=13	=13
8b	I
8a	.
4f#	.
4f#	vi
4d	.
=14	=14
8d	ii7
8d	.
8d	.
8d	.
8B	V7
4.A	.
=15	=15
8d	I
8d	.
8d	.
8d	.
8f#	ii7
8d	.
4e	V7
=16	=16
1d	I;
*-	*-
